X:706
T:Reel 706
M:4/4
K:Dmaj
L:1/8
F|GBGB AFDF|EBAF GEEc|BAGF GEEF|GBAG FDDG|BAGF E2EG|GABG GFGA|BABc dcBA|GBAG FDD|G|FAAD FDAD|EFGA BEEG|FGAc BcdB|Adce d2de|FAAc BGGF|EGFE FDDA|dcBc dcAc|d2AG FDD|G|FAdA FABA|FAdA FEEd|FGFA DABc|dBAG FDDG|FGFE D2A,G,|B,A,B,D EFGA|FDB,D d2dB|AFEG FDD|
